brandFactory_export/3.Masa/Premio primero ganador _3Masa.svg

<?xml version="1.0" encoding="UTF-8"?>
<svg width="24px" height="24px" viewBox="0 0 24 24" version="1.1" xmlns="http://www.w3.org/2000/svg" xmlns:xlink="http://www.w3.org/1999/xlink">
    <title>3.Masa/Premio primero ganador _3Masa</title>
    <g id="Symbols" stroke="none" stroke-width="1" fill="none" fill-rule="evenodd">
        <g id="3.Masa/Premio-primero-ganador-_3Masa" fill="#5CB615" fill-rule="nonzero">
            <path d="M16.7394958,21.6941176 L17.4554622,19.7680672 C17.6941176,19.1428571 18.389916,18.8235294 19.0184874,19.0521008 L20.9277311,19.7579832 L18.1411765,13.7008403 C17.0689076,14.6554622 15.6067227,15.210084 13.8352941,15.3815126 L16.7394958,21.6941176 L16.7394958,21.6941176 Z M3.75798319,19.7546218 L5.67731092,19.0487395 C6.30252101,18.8201681 6.99831933,19.1327731 7.24033613,19.7546218 L7.95630252,21.6840336 L10.8907563,15.3210084 C9.1394958,15.0722689 7.73781513,14.4067227 6.73277311,13.3243697 L3.75798319,19.7546218 Z M11.0453782,10.9848739 C11.1630252,10.9848739 11.2806723,10.9546218 11.3882353,10.897479 L12.6218487,10.2218487 L12.6420168,10.2218487 L13.8756303,10.897479 C13.9798319,10.9546218 14.0941176,10.9848739 14.2151261,10.9848739 C14.3596639,10.9848739 14.497479,10.9411765 14.6117647,10.8571429 C14.8470588,10.6957983 14.9647059,10.410084 14.9109244,10.1310924 L14.6823529,8.68907563 C14.6722689,8.6789916 14.6823529,8.66890756 14.6823529,8.65882353 L15.687395,7.64369748 C15.8890756,7.44537815 15.9596639,7.14621849 15.8689076,6.87731092 C15.7815126,6.61848739 15.5596639,6.4302521 15.2907563,6.38991597 L13.9092437,6.18487395 C13.9092437,6.18487395 13.8991597,6.18487395 13.8991597,6.17478992 L13.2672269,4.87394958 C13.1159664,4.5210084 12.7092437,4.35966387 12.3563025,4.51092437 C12.194958,4.58151261 12.0638655,4.7092437 11.9932773,4.87394958 L11.3781513,6.17478992 C11.3680672,6.18487395 11.3680672,6.18487395 11.3579832,6.18487395 L9.97647059,6.38991597 C9.70756303,6.4302521 9.48907563,6.61848739 9.40840336,6.87731092 C9.31428571,7.14285714 9.37815126,7.44201681 9.57647059,7.64369748 L10.5815126,8.65882353 C10.5815126,8.66890756 10.5915966,8.6789916 10.5915966,8.68907563 L10.3529412,10.1310924 C10.302521,10.410084 10.4201681,10.6957983 10.6521008,10.8571429 C10.7697479,10.9445378 10.907563,10.9848739 11.0453782,10.9848739 L11.0453782,10.9848739 Z M12.6319328,0 C17.5058824,0 20.3495798,2.46722689 20.3495798,7.72436975 C20.3495798,9.68403361 19.9630252,11.2537815 19.2067227,12.4470588 L22.5680672,19.7445378 C22.7663866,20.1613445 22.7058824,20.6487395 22.410084,21.0084034 C22.1243697,21.3714286 21.6571429,21.5361345 21.2067227,21.4352941 L18.7596639,20.5411765 L17.8857143,22.897479 C17.6268908,23.3714286 17.2201681,23.6235294 16.7731092,23.6235294 L16.7327731,23.6235294 C16.2722689,23.6168067 15.8554622,23.3411765 15.6672269,22.9176471 L12.3529412,15.7277311 L9.03193277,22.9176471 C8.84369748,23.3411765 8.42352941,23.6168067 7.95966387,23.6235294 L7.92941176,23.6235294 C7.48235294,23.6235294 7.07226891,23.3848739 6.85714286,22.9781513 L5.94285714,20.5445378 L3.59327731,21.4084034 C3.46554622,21.4386555 3.34453782,21.4521008 3.22352941,21.4521008 C2.83697479,21.4521008 2.51092437,21.2941176 2.28907563,21.0184874 C1.99663866,20.6588235 1.93613445,20.1647059 2.13109244,19.7445378 L5.71092437,11.9697479 C5.7210084,11.9394958 5.74117647,11.9294118 5.76134454,11.902521 C5.20336134,10.7865546 4.91428571,9.39495798 4.91428571,7.72773109 C4.91092437,2.46722689 7.75462185,0 12.6319328,0 Z" id="Premio-primero-ganador-_3Masa"></path>
        </g>
    </g>
</svg>

<svg width="24" height="24" viewBox="0 0 24 24" xmlns="http://www.w3.org/2000/svg"><path d="M16.74 21.694l.715-1.926a1.226 1.226 0 011.563-.716l1.91.706-2.787-6.057c-1.072.954-2.534 1.51-4.306 1.68l2.904 6.313zm-12.982-1.94l1.92-.705a1.226 1.226 0 011.562.706l.716 1.929 2.935-6.363c-1.752-.249-3.153-.914-4.158-1.997l-2.975 6.43zm7.287-8.77c.118 0 .236-.03.343-.087l1.234-.675h.02l1.234.675a.7.7 0 00.34.088.665.665 0 00.396-.128.717.717 0 00.299-.726l-.229-1.442c-.01-.01 0-.02 0-.03l1.005-1.015a.744.744 0 00.182-.767.724.724 0 00-.578-.487l-1.382-.205s-.01 0-.01-.01l-.632-1.301a.692.692 0 00-1.274 0l-.615 1.3c-.01.01-.01.01-.02.01l-1.382.206a.702.702 0 00-.568.487.742.742 0 00.168.767l1.006 1.015c0 .01.01.02.01.03l-.24 1.442a.73.73 0 00.3.726.655.655 0 00.393.128zM12.632 0c4.874 0 7.718 2.467 7.718 7.724 0 1.96-.387 3.53-1.143 4.723l3.361 7.298a1.18 1.18 0 01-.158 1.263 1.196 1.196 0 01-1.203.427l-2.447-.894-.874 2.356c-.26.474-.666.727-1.113.727h-.04a1.187 1.187 0 01-1.066-.706l-3.314-7.19-3.321 7.19c-.188.423-.608.699-1.072.706h-.03c-.448 0-.858-.24-1.073-.646l-.914-2.433-2.35.863c-.127.03-.248.044-.37.044-.386 0-.712-.158-.934-.434a1.21 1.21 0 01-.158-1.273l3.58-7.775c.01-.03.03-.04.05-.067-.558-1.116-.847-2.508-.847-4.175C4.911 2.468 7.754 0 12.632 0z" fill="#5CB615" fill-rule="nonzero"/></svg>
